X:31
M:4/4
L:1/4
K:C
%%MIDI program 1 56 % Trumpet
%%MIDI program 2 40 % Violin
%%MIDI program 3 41
%%MIDI program 4 42
V:M lyrics=up
G2 F3/2 _B/-|_B4|B2 A3/2d/-|d4|
w:Fm7 Bb7* Ebmaj7 Am7 D7* Gmaj7
^d2 d3/2 ^f/-|^f4|g2 g3/2 _b/-|_b4||
w:C#m7 F#7* Bmaj7 Fm7 Bb7* Ebmaj7
V:T
[_A_e]2 [_Ad]2|[Gd]4|[Gc]2[^Fc]2|[^FB]4|
[EB]2 [E^A]2|[^D^A]4| [_E_A]2 [D_A]2| [DG]4||
V:B
F,2 _B,2|_E,4|A,2D,2|G,,4|
^C,2 ^F,2| B,4| F,2 _B,,2| _E,4||

